X: 2322
T: Bag Of Potatoes, The
R: reel
M: 4/4
K: Dmajor
|:BddB ce e2|BddB A2 GA|Bd d2 ceef|gabg a2 g2:|
|:gabg eaab|gabg e2 d2|gabg ea^ga|gedB A2 G2:|
FA ~A GB ~B|FAAF (3EFE DE|FA (3AAA GB (3ABc|defd (3efe d:|
defd Be ~e|d2 (3fed B2 (3ABc|df ~f2 ce ~e|dBAF (3EFE D:|

